X:18355
T: Waiting for the Federals
M:4/4
C:Trad. USA
S:Aly Bain Book
K:G
||B4 B2 AB | d2 B2 BA G2 | B4 d3 B | ABAG E2 D2 |
B4 B2 AB | d2 B2 BA G2 | ABAG E2 F2 |[1G3 A G2 DG:|[2G3 A G2 Bd |
|| g4 gage | d2 B2 BA G2 | g4 gfga | beef e3 f | gaba g2 ge |
dged BA G2 | ABAG E2 F2 |[1G3 A G2 Bd:|[2G4 G4|


